X:1
T:Jockey to the Fair
C:Traditional
M:6/8
L:1/8
Q:3/8=120
K:F
C | F2G A2B | cfd c2B | AcA FEF | BAB GAB | c=Bc def | ege c2f | edc GA=B | c3 c3 |]
